rospo-icon-theme-classic-common/48x48/places/folder-yellow-image-people.svg

<svg height="48" width="48" xmlns="http://www.w3.org/2000/svg"><rect height="26" opacity=".2" rx="2" width="40" x="4" y="17"/><path d="m4 34c0 1.108.892 2 2 2h36c1.108 0 2-.892 2-2v-22c0-1.108-.892-2-2-2h-20v-2c0-1.108-.892-2-2-2h-14c-1.108 0-2 .892-2 2" fill="#b58f1b"/><rect height="26" opacity=".2" rx="2" width="40" x="4" y="15"/><rect fill="#e4e4e4" height="16" rx="2" width="36" x="6" y="13"/><rect fill="#e2b322" height="26" rx="2" width="40" x="4" y="16"/><path d="m6 6c-1.108 0-2 .892-2 2v1c0-1.108.892-2 2-2h14c1.108 0 2 .892 2 2v-1c0-1.108-.892-2-2-2zm16 4v1h20c1.108 0 2 .892 2 2v-1c0-1.108-.892-2-2-2z" fill="#fff" opacity=".1"/><path d="m20.545 25.452c-.046.011-.092.029-.135.052-.43.227-.54.936-.246 1.592.237.528.657.854 1.039.844.287 1.753 1.43 3.06 2.79 3.06h.012c1.361 0 2.504-1.307 2.791-3.06.381.01.802-.316 1.039-.844.294-.656.184-1.365-.246-1.592-.044-.023-.089-.041-.135-.052-.055-1.917-1.578-3.452-3.454-3.452-1.875 0-3.4 1.535-3.455 3.452zm5.849 5.548c-.289.701-1.274 1.227-2.449 1.227-1.17 0-2.146-.519-2.44-1.215-2.468.258-4.267.89-4.483 1.637-.003.007.002.016 0 .023-.007.027-.007.051-.01.078-.001.013-.012.021-.012.034v.009 1.85c.001.197.157.357.351.357h13.299c.194 0 .35-.16.35-.357v-1.85-.022c-.002-.043-.021-.08-.033-.123-.221-.756-2.059-1.396-4.572-1.648z" fill="#4f3e0c"/></svg>

<svg xmlns="http://www.w3.org/2000/svg" width="48" height="48" version="1">
 <rect style="opacity:0.2" width="40" height="26" x="4" y="17" rx="2" ry="2"/>
 <path style="fill:#b58f1b" d="M 4,34 C 4,35.108 4.892,36 6,36 H 42 C 43.108,36 44,35.108 44,34 V 12 C 44,10.892 43.108,10 42,10 H 22 V 8 C 22,6.892 21.108,6 20,6 H 6 C 4.892,6 4,6.892 4,8"/>
 <rect style="opacity:0.2" width="40" height="26" x="4" y="15" rx="2" ry="2"/>
 <rect style="fill:#dcdcdc" width="36" height="16" x="6" y="13" rx="2" ry="2"/>
 <rect style="fill:#e2b322" width="40" height="26" x="4" y="16" rx="2" ry="2"/>
 <path style="opacity:0.1;fill:#ffffff" d="M 6,6 C 4.892,6 4,6.892 4,8 V 9 C 4,7.892 4.892,7 6,7 H 20 C 21.108,7 22,7.892 22,9 V 8 C 22,6.892 21.108,6 20,6 Z M 22,10 V 11 H 42 C 43.108,11 44,11.892 44,13 V 12 C 44,10.892 43.108,10 42,10 Z"/>
 <path style="fill:#4f3e0c" d="M 20.545,25.452 C 20.499,25.463 20.453,25.481 20.41,25.504 19.98,25.731 19.87,26.44 20.164,27.096 20.401,27.624 20.821,27.95 21.203,27.94 21.49,29.693 22.633,31 23.993,31 H 24.005 C 25.366,31 26.509,29.693 26.796,27.94 27.177,27.95 27.598,27.624 27.835,27.096 28.129,26.44 28.019,25.731 27.589,25.504 27.545,25.481 27.5,25.463 27.454,25.452 27.399,23.535 25.876,22 24,22 22.125,22 20.6,23.535 20.545,25.452 Z M 26.394,31 C 26.105,31.701 25.12,32.227 23.945,32.227 22.775,32.227 21.799,31.708 21.505,31.012 19.037,31.27 17.238,31.902 17.022,32.649 17.019,32.656 17.024,32.665 17.022,32.672 17.015,32.699 17.015,32.723 17.012,32.75 17.011,32.763 17,32.771 17,32.784 V 32.793 34.643 C 17.001,34.84 17.157,35 17.351,35 H 30.65 C 30.844,35 31,34.84 31,34.643 V 32.793 32.771 C 30.998,32.728 30.979,32.691 30.967,32.648 30.746,31.892 28.908,31.252 26.395,31 Z"/>
</svg>
